X:271
T:Anda Campbell's Frolic
C:Joe Buchanan's Scottish Tome - Page 314.1
I:314 1
C:Colin Finlayson
R:Jig
Z:Carl Allison
L:1/8
M:6/8
K:D
A |  d3 (A2 G) |FEF (D2 F) | E3 (e2 d) | cBc ABc |
d3 (A2 G) | FEF (D2 F) | (E2 e) cBA |  d3 d2 :|
e | (f2 a) gfe | (d2 f) A3 | (B2 e) dcB |  (A2 d) F3 |
(G2 A) BAG | (F2 A) d3 | (G2 B) (e2 d) | c2 e a2 g |
(f2 a) gfe | (d2 f) A3 | (B2 e) dcB | (A2 d) F3 |
(G2 A) BAG | (F2 A) d2 e | (f2 A) cBA | d3 d2 |]
